X: 100429
T: PRINCESS BEATRICE WALTZ #3
C: Composed by William Findlay, Broxburn
R: waltz
B: K\"ohler's Violin Repository, v.3, 1885 p.274 #3
F: http://www.archive.org/details/klersviolinrepos03rugg
Z: 2012 John Chambers <jc:trillian.mit.edu>
M: 3/4
L: 1/8
K: G
uA2 |\
(F4A2) | {c}(B4F2) | (G4B2) | (e4f2) |\
{a}g2f2e2 | d2c2(B2 | A2)(G3E) | (F4A2) |\
(F4A2) | {c}(B4F2) | (G4B2) | (e4f2) |\
[1 (gf)edcB | (A2g3)uc | (.d3.d)d2 | d2z2 :|\
[2 g2b2a2 | g2A2c2 | (d2f3e) | d2z2 ||
|: uA2 |\
f6 | cde2d2 | (A6 | F6) |\
FGA2d2 | f2d2b2 | (a6 | g6) |\
B6- | B2d2g2 | A6- | A2d2f2 |\
(e4d2) | (c2d2) | e6 | (a2^g2=g2) |
f6 | cde2d2 | (A6 | F6) |\
FGA2d2 | f2d2b2 | (a6 | g6) |\
B6- | B2d2g2 | b6- | b2a2g2 |\
f2e2c2 | a2(f3e) | d6- | d2z2 :|

%%sep 2 1 500

